modules/defaultemblems/img/Heraldic_pentacle.svg

<?xml version="1.0" encoding="UTF-8" standalone="no"?>
<!-- Created with gedit -->
<!-- https://commons.wikimedia.org/wiki/File:Heraldic_pentacle.svg -->
<svg height="289.18" width="303.04" xmlns="http://www.w3.org/2000/svg">
  <path d="m151.52 9.9983126 34.9852 100.6479174 106.53288 2.17099-84.91086 64.3748 30.85575 101.98966-87.46297-60.8621-87.462978 60.8621 30.855751-101.98966-84.910841-64.37481 106.532878-2.17098z" fill="#c0c0c0" fill-rule="evenodd"/>
</svg>

<?xml version="1.0" encoding="UTF-8" standalone="no"?>
<!-- Created with gedit -->
<!-- https://commons.wikimedia.org/wiki/File:Heraldic_pentacle.svg -->
<svg
   xmlns:dc="http://purl.org/dc/elements/1.1/"
   xmlns:cc="http://web.resource.org/cc/"
   xmlns:rdf="http://www.w3.org/1999/02/22-rdf-syntax-ns#"
   xmlns:svg="http://www.w3.org/2000/svg"
   xmlns="http://www.w3.org/2000/svg"
   xmlns:sodipodi="http://inkscape.sourceforge.net/DTD/sodipodi-0.dtd"
   xmlns:inkscape="http://www.inkscape.org/namespaces/inkscape"
   width="303.04"
   height="289.18"
   version="1.1"
   sodipodi:version="0.32"
   inkscape:version="0.41">
  <metadata>
    <rdf:RDF>
      <cc:Work>
        <dc:format>image/svg+xml</dc:format>
        <dc:type rdf:resource="http://purl.org/dc/dcmitype/StillImage" />
        <dc:creator>
          <cc:Agent>
            <dc:title>MarianSigler, mariansigler@gmail.com</dc:title>
          </cc:Agent>
        </dc:creator>
        <cc:license rdf:resource="http://web.resource.org/cc/PublicDomain" />
        <dc:title></dc:title>
      </cc:Work>
      <cc:License rdf:about="http://web.resource.org/cc/PublicDomain">
        <cc:permits rdf:resource="http://web.resource.org/cc/Reproduction" />
        <cc:permits rdf:resource="http://web.resource.org/cc/Distribution" />
        <cc:permits rdf:resource="http://web.resource.org/cc/DerivativeWorks" />
        <cc:requires rdf:resource="http://web.resource.org/cc/ShareAlike" />
      </cc:License>
    </rdf:RDF>
  </metadata>
  <path style="fill:#C0C0C0; fill-opacity:1; fill-rule:evenodd; stroke:none"
        d="M 151.52000,9.9983126 L 186.50520,110.64623 L 293.03808,112.81722 L 208.12722,177.19202 L 238.98297,279.18168 L 151.52000,218.31958 L 64.057022,279.18168 L 94.912773,177.19202 L 10.001932,112.81721 L 116.53481,110.64623 L 151.52000,9.9983126 z " />
</svg>
